svgs/realme_link.svg

<svg xmlns="http://www.w3.org/2000/svg" viewBox="0 0 24 24"><path stroke="#000" stroke-width=".6" d="M13.069 21.5h2.894a.05.05 0 0 0 .048-.035l1.979-6.431c.003-.01-.009-.017-.016-.011L14 18.5l-.978 2.934a.05.05 0 0 0 .047.066Z"/><path fill="none" stroke="#000" stroke-width="3" d="M12 6.5a5.507 5.507 0 0 0-3.233 1.05A5.501 5.501 0 1 0 12 6.5Z"/><path stroke="#000" stroke-width=".6" d="M10.931 2.5H8.037a.05.05 0 0 0-.048.035L6.01 8.966c-.003.01.009.017.017.011L10 5.5l.978-2.934a.05.05 0 0 0-.047-.066Z"/></svg>

<svg
    xmlns="http://www.w3.org/2000/svg"
    viewBox="0 0 24 24"
    id="vector">
    <path
        id="path"
        d="M 13.069 21.5 L 15.963 21.5 C 15.985 21.5 16.004 21.486 16.011 21.465 L 17.99 15.034 C 17.993 15.024 17.981 15.017 17.974 15.023 L 14 18.5 L 13.022 21.434 C 13.011 21.467 13.035 21.5 13.069 21.5 Z"
        fill="#000000"
        stroke="#000000"
        stroke-width="0.6"/>
    <path
        id="path_1"
        d="M 12 6.5 C 10.839 6.5 9.707 6.868 8.767 7.55 C 7.828 8.233 7.128 9.196 6.769 10.3 C 6.41 11.405 6.41 12.595 6.769 13.7 C 7.128 14.804 7.828 15.767 8.767 16.45 C 9.707 17.132 10.839 17.5 12 17.5 C 13.161 17.5 14.293 17.132 15.233 16.45 C 16.172 15.767 16.872 14.804 17.231 13.7 C 17.59 12.595 17.59 11.405 17.231 10.3 C 16.872 9.196 16.172 8.233 15.233 7.55 C 14.293 6.868 13.161 6.5 12 6.5 Z"
        fill="none"
        stroke="#000000"
        stroke-width="3"/>
    <path
        id="path_2"
        d="M 10.931 2.5 L 8.037 2.5 C 8.015 2.5 7.996 2.514 7.989 2.535 L 6.01 8.966 C 6.007 8.976 6.019 8.983 6.027 8.977 L 10 5.5 L 10.978 2.566 C 10.989 2.533 10.965 2.5 10.931 2.5 Z"
        fill="#000000"
        stroke="#000000"
        stroke-width="0.6"/>
</svg>
